www/download.svg

<svg xmlns="http://www.w3.org/2000/svg" viewBox="0 0 121.544 125.554"><g color="#000"><path d="M47.973 19.426v51.781h-27.813l3.969 4h.031l43.75 43.75v.031h.031l47.75-47.781h-27.75v-51.781h-39.969z" opacity=".5" stroke="#000" stroke-width="10" stroke-linecap="round" stroke-linejoin="round" overflow="visible" enable-background="accumulate"/><path d="M40.815 12.998v51.781h-27.813l47.781 47.781 47.781-47.781h-27.781v-51.781h-39.969z" stroke="#000" stroke-width="10" stroke-linecap="round" stroke-linejoin="round" overflow="visible" enable-background="accumulate" fill="none"/><path d="M40.815 12.998v51.781h-27.813l47.781 47.781 47.781-47.781h-27.781v-51.781h-39.969z" fill="#ffa500" overflow="visible" enable-background="accumulate"/><path d="M95.522 64.781c-11.081 7.567-35.618 21.601-53.188 11.563-8.627-4.929-17.157-7.662-25.344-7.563l43.781 43.781 47.781-47.781h-13.031z" fill="#f27400" overflow="visible" enable-background="accumulate"/></g></svg>

<svg xmlns="http://www.w3.org/2000/svg" viewBox="0 0 121.544 125.554"><g color="#000"><path d="M47.973 19.426v51.781H20.16l3.969 4h.031l43.75 43.75v.031h.031l47.75-47.781h-27.75V19.426H47.972z" opacity=".5" stroke="#000" stroke-width="10" stroke-linecap="round" stroke-linejoin="round" overflow="visible"/><path d="M40.815 12.998v51.781H13.002l47.781 47.781 47.781-47.781H80.783V12.998H40.814z" stroke="#000" stroke-width="10" stroke-linecap="round" stroke-linejoin="round" overflow="visible" fill="none"/><path d="M40.815 12.998v51.781H13.002l47.781 47.781 47.781-47.781H80.783V12.998H40.814z" fill="orange" overflow="visible"/><path d="M95.522 64.781c-11.081 7.567-35.618 21.601-53.188 11.563-8.627-4.929-17.157-7.662-25.344-7.563l43.781 43.781 47.781-47.781H95.521z" fill="#f27400" overflow="visible"/></g></svg>
